X:217
T: AUF SINGET UND TRINKET
N: B0704
O: Europa, Mitteleuropa, Deutschland
R: Scherz -, Trink -  Lied, historisch
M: 3/4
L: 1/16
K: G
D4 | G4G4D4 | A4A4
D4 | A4A4d4 | B4z4
B4 | A4d6B2 | A4d4
B4 | A2B2A2G2=F2E2 | D4z4
D4 | G4G6=F2 | E4E4
E4 | A4A6G2 | G4=F2z2
D4 | G4B6G2 | =F2A2d4
e4 | B4B4A4 | G4z4
d2c2 | B3AB3AB3c | d8
e2c2 | A4B4A4 | G8

